public/resource/img/game/type/survey.svg

<svg xmlns="http://www.w3.org/2000/svg" width="48" height="48" viewBox="0 0 48 48">
  <g fill="none" fill-rule="evenodd">
    <path fill="#F2F2F2" d="M24.0000724,44.075 L24.0000724,44.075 C12.9540724,44.075 4.00007242,35.121 4.00007242,24.075 C4.00007242,13.03 12.9540724,4.075 24.0000724,4.075 C35.0460724,4.075 44.0000724,13.03 44.0000724,24.075 C44.0000724,35.121 35.0460724,44.075 24.0000724,44.075"/>
    <polygon points="0 6.244 48 6.244 48 41.906 0 41.906"/>
    <path fill="#333" d="M47.3735724,34.7767 L5.42757242,41.8957 C5.01857242,41.9647 4.63157242,41.6897 4.56257242,41.2797 L0.0105724176,14.2387 C-0.0584275824,13.8297 0.217572418,13.4427 0.626572418,13.3737 L42.5725724,6.2547 C42.9815724,6.1857 43.3685724,6.4617 43.4375724,6.8697 L47.9895724,33.9117 C48.0585724,34.3197 47.7825724,34.7077 47.3735724,34.7767"/>
    <path fill="#FFF" d="M45.7304724,32.5282 L6.24347242,39.2312 C6.02147242,39.2682 5.81147242,39.1222 5.77447242,38.9032 L1.80147242,15.3002 C1.76547242,15.0822 1.91547242,14.8752 2.13747242,14.8382 L41.6244724,8.1342 C41.8464724,8.0972 42.0564724,8.2442 42.0924724,8.4622 L46.0664724,32.0652 C46.1034724,32.2832 45.9524724,32.4902 45.7304724,32.5282"/>
    <path fill="#26890C" fill-rule="nonzero" d="M25.4384103,28.4458283 C25.8973121,28.420398 26.3431048,28.3281239 26.7669535,28.1731137 L28.6474171,32.5840098 C27.6314339,32.9947877 26.5485084,33.2230142 25.4384103,33.2540412 L25.4384103,28.445827 Z"/>
    <path fill="#1368CE" fill-rule="nonzero" d="M27.3103309,27.9916048 C28.5669257,27.3671389 29.5067487,26.2064612 29.8528539,24.8249263 C29.9286499,24.5223745 29.9755988,24.2114014 29.9926062,23.8944378 L34.7980136,23.8944378 C34.7784743,24.6163296 34.6806355,25.3281554 34.5073434,26.0198789 C33.7946304,28.8647881 31.839852,31.2281525 29.2260797,32.4517895 L27.3103309,27.9916048 Z"/>
    <path fill="#E21B3C" fill-rule="nonzero" d="M29.9605429,23.3596034 C29.8212003,20.8255605 27.7136008,18.8135103 25.1340814,18.8135103 C24.5289816,18.8135103 23.9428734,18.9231554 23.3944817,19.1339378 L21.4271517,14.733785 C22.5926714,14.2516102 23.8477046,14 25.1340814,14 C30.383538,14 34.6557812,18.1663901 34.7980136,23.3596034 L29.9605429,23.3596034 Z"/>
    <path fill="#FFA602" fill-rule="nonzero" d="M22.9512398,19.4438168 C21.3776776,20.257155 20.3574827,21.8803409 20.3574827,23.6903123 C20.3574827,26.2430852 22.369533,28.3288314 24.9035758,28.4667292 L24.9035758,33.2540412 C19.7103625,33.1132835 15.5439724,28.8853383 15.5439724,23.6903123 C15.5439724,19.972556 17.698141,16.647592 20.9915971,15.069669 L22.9512398,19.4438168 Z"/>
  </g>
</svg>

<svg xmlns="http://www.w3.org/2000/svg" width="48" height="48"><g fill="none" fill-rule="evenodd"><path fill="#F2F2F2" d="M24 44.075c-11.046 0-20-8.954-20-20 0-11.045 8.954-20 20-20s20 8.955 20 20c0 11.046-8.954 20-20 20"/><path d="M0 6.244h48v35.662H0z"/><path fill="#333" d="M47.374 34.777L5.428 41.896a.75.75 0 01-.865-.616L.01 14.239a.75.75 0 01.616-.865l41.946-7.12a.75.75 0 01.865.616l4.552 27.042a.751.751 0 01-.616.865"/><path fill="#FFF" d="M45.73 32.528L6.243 39.231a.405.405 0 01-.469-.328L1.801 15.3a.404.404 0 01.336-.462l39.487-6.704a.404.404 0 01.468.328l3.974 23.603a.405.405 0 01-.336.463"/><path fill="#26890C" fill-rule="nonzero" d="M25.438 28.446a4.601 4.601 0 001.329-.273l1.88 4.411a9.236 9.236 0 01-3.209.67v-4.808z"/><path fill="#1368CE" fill-rule="nonzero" d="M27.31 27.992a4.865 4.865 0 002.683-4.098h4.805a9.836 9.836 0 01-.29 2.126 9.71 9.71 0 01-5.282 6.432l-1.916-4.46z"/><path fill="#E21B3C" fill-rule="nonzero" d="M29.96 23.36c-.139-2.534-2.246-4.546-4.826-4.546-.605 0-1.191.11-1.74.32l-1.967-4.4A9.68 9.68 0 0125.134 14c5.25 0 9.522 4.166 9.664 9.36h-4.837z"/><path fill="#FFA602" fill-rule="nonzero" d="M22.951 19.444a4.78 4.78 0 00-2.594 4.246c0 2.553 2.013 4.639 4.547 4.777v4.787c-5.194-.14-9.36-4.369-9.36-9.564a9.563 9.563 0 015.448-8.62l1.96 4.374z"/></g></svg>
